images/portfolio/icons/antenna.svg

<svg width="70" height="70" viewBox="0 0 70 70" fill="none" xmlns="http://www.w3.org/2000/svg">
<path d="M69.6339 48.3385L49.8398 29.7337L52.0366 19.6373C52.6035 19.8438 53.2062 19.9517 53.8146 19.9558H53.8296C56.6248 19.9866 58.9174 17.8974 58.9506 15.2893C58.9837 12.6812 56.7445 10.542 53.9494 10.5111C51.1542 10.4803 48.8616 12.5695 48.8284 15.1776C48.8214 15.7357 48.9203 16.2905 49.1209 16.8163L37.4927 18.1405L18.525 0.35C18.2923 0.128479 17.9747 0.00247917 17.6423 0C17.3141 0.00160417 16.9998 0.123521 16.7671 0.3395L13.2211 3.6295C12.733 4.08508 12.733 4.82358 13.2211 5.27917L15.1291 7.08517C7.7371 19.7681 10.1381 35.4741 21.0357 45.7228C21.1357 45.8121 21.2517 45.8843 21.3783 45.9363C21.2995 46.3311 21.2584 46.7317 21.2558 47.1333V60.6667H6.2517C2.80076 60.6705 0.0040636 63.28 0 66.5V68.8333C0 69.4776 0.55984 70 1.25034 70H58.766C59.4565 70 60.0163 69.4776 60.0163 68.8333V66.5C60.0122 63.28 57.2156 60.6705 53.7646 60.6667H38.7605V54.6688C41.111 55.1288 43.5059 55.3633 45.9075 55.3688C51.6703 55.363 57.3414 54.0225 62.412 51.4675L64.33 53.2677C64.5627 53.4892 64.8803 53.6152 65.2127 53.6177C65.5409 53.6161 65.8552 53.4941 66.088 53.2782L69.6339 49.9882C70.122 49.5326 70.122 48.7941 69.6339 48.3385ZM52.0667 13.6348C53.0458 12.726 54.6292 12.7301 55.6031 13.6437C56.5771 14.5574 56.5727 16.0348 55.5935 16.9435C55.1248 17.3785 54.4906 17.6226 53.8295 17.6225H53.822C52.441 17.6158 51.3271 16.5658 51.3343 15.2771C51.3377 14.6602 51.6028 14.0699 52.0715 13.6348H52.0667V13.6348ZM49.1234 21.301L47.7205 27.7445L44.9647 25.158L49.1234 21.301ZM47.703 19.3282L43.2017 23.5037L39.7195 20.237L47.703 19.3282ZM53.7646 63C55.8363 63 57.5156 64.567 57.5156 66.5V67.6667H2.50068V66.5C2.50068 64.567 4.18004 63 6.2517 63H53.7646ZM36.2599 58.3333V60.6667H23.7565V58.3333H36.2599ZM23.7565 56V47.1333C23.7565 44.303 26.561 42 30.0082 42C33.4553 42 36.2599 44.303 36.2599 47.1333V56H23.7565ZM38.7605 52.29V47.1333C38.7605 43.0162 34.8345 39.6667 30.0082 39.6667C26.8876 39.622 23.9696 41.1041 22.3161 43.5738C12.8032 34.2249 10.661 20.2875 16.9741 8.82073L60.584 49.7455C53.8499 52.9419 46.1305 53.8418 38.7605 52.29ZM65.2265 50.7943L63.4648 49.1412L17.6298 6.11567L15.8606 4.46133L17.6298 2.81633L36.2323 20.272C36.2411 20.272 36.2461 20.2872 36.2549 20.293L67.0007 49.1493L65.2265 50.7943Z" fill="#212121"/>
<path d="M30.0194 44.3333H30.0081C27.9365 44.3304 26.2546 45.895 26.2515 47.8281C26.2483 49.7611 27.9252 51.3304 29.9969 51.3333H30.0081C32.0798 51.3362 33.7616 49.7716 33.7648 47.8386C33.7679 45.9055 32.091 44.3362 30.0194 44.3333ZM30.8946 48.6605C30.6592 48.8789 30.3402 49.0012 30.0081 49C29.3176 48.9966 28.7607 48.4716 28.7643 47.8273C28.7661 47.5189 28.8986 47.2237 29.1329 47.0062C29.3656 46.7902 29.6799 46.6683 30.0081 46.6667C30.6986 46.67 31.2555 47.195 31.2519 47.8393C31.2502 48.1477 31.1176 48.4429 30.8834 48.6605H30.8946Z" fill="#2196F3"/>
</svg>

<svg viewBox="0 0 70 70" fill="none" xmlns="http://www.w3.org/2000/svg"><path d="M69.634 48.339 49.84 29.734l2.197-10.097c.566.207 1.17.315 1.778.319h.015c2.795.03 5.087-2.059 5.12-4.667.034-2.608-2.206-4.747-5-4.778-2.796-.03-5.088 2.059-5.122 4.667a4.437 4.437 0 0 0 .293 1.638l-11.628 1.325L18.525.35a1.295 1.295 0 0 0-1.758-.01l-3.546 3.29a1.112 1.112 0 0 0 0 1.65l1.908 1.805c-7.392 12.683-4.99 28.39 5.907 38.638.1.09.216.161.342.213-.079.395-.12.796-.122 1.197v13.534H6.252C2.8 60.67.004 63.28 0 66.5v2.333C0 69.478.56 70 1.25 70h57.516c.69 0 1.25-.522 1.25-1.167V66.5c-.004-3.22-2.8-5.83-6.251-5.833H38.76v-5.998c2.351.46 4.746.694 7.148.7 5.762-.006 11.433-1.346 16.504-3.901l1.918 1.8a1.296 1.296 0 0 0 1.758.01l3.546-3.29a1.112 1.112 0 0 0 0-1.65ZM52.067 13.635c.979-.909 2.562-.905 3.536.009.974.913.97 2.39-.01 3.3a2.595 2.595 0 0 1-1.764.678h-.007c-1.381-.006-2.495-1.056-2.488-2.345a2.258 2.258 0 0 1 .737-1.642h-.004ZM49.123 21.3l-1.402 6.444-2.756-2.587 4.158-3.857Zm-1.42-1.973-4.501 4.176-3.483-3.267 7.984-.909ZM53.765 63c2.071 0 3.75 1.567 3.75 3.5v1.167H2.502V66.5c0-1.933 1.679-3.5 3.75-3.5h47.514ZM36.26 58.333v2.334H23.757v-2.334H36.26ZM23.757 56v-8.867c0-2.83 2.804-5.133 6.251-5.133 3.447 0 6.252 2.303 6.252 5.133V56H23.757Zm15.003-3.71v-5.157c0-4.117-3.925-7.466-8.752-7.466-3.12-.045-6.038 1.437-7.692 3.907-9.513-9.35-11.655-23.286-5.342-34.753l43.61 40.925C53.85 52.941 46.13 53.841 38.76 52.29Zm26.467-1.496-1.762-1.653L17.63 6.116 15.86 4.46l1.77-1.645 18.602 17.456c.01 0 .014.015.023.021L67 49.149l-1.775 1.645Z" fill="#212121"/><path d="M30.02 44.333h-.012c-2.072-.003-3.753 1.562-3.756 3.495-.004 1.933 1.673 3.502 3.745 3.505h.011c2.072.003 3.754-1.561 3.757-3.494.003-1.933-1.674-3.503-3.746-3.506Zm.875 4.328c-.236.218-.555.34-.887.339-.69-.003-1.247-.528-1.244-1.173a1.13 1.13 0 0 1 .369-.82c.233-.217.547-.339.875-.34.69.003 1.248.528 1.244 1.172a1.13 1.13 0 0 1-.369.822h.012Z" fill="#2196F3"/></svg>
